dist/svg/static/select-all-small.svg

<svg xmlns="http://www.w3.org/2000/svg" width="24" height="24" viewBox="0 0 24 24"><g fill="none" stroke="currentColor" stroke-miterlimit="10"><path d="M6.5 6.5h11v11h-11zM7 2.5h2M11 2.5h2M15 2.5h2M5 2.5H2.78s-.28-.016-.28.28V5M19 2.5h2.22s.28-.016.28.28V5M7 21.5h2M11 21.5h2M15 21.5h2M5 21.5H2.78s-.28.016-.28-.28V19M19 21.5h2.22s.28.016.28-.28V19M2.5 17v-2M2.5 13v-2M2.5 9V7M21.5 17v-2M21.5 13v-2M21.5 9V7"/></g></svg>

<?xml version="1.0" encoding="UTF-8" standalone="no"?>
<svg width="24px" height="24px" viewBox="0 0 24 24" version="1.1" xmlns="http://www.w3.org/2000/svg" xmlns:xlink="http://www.w3.org/1999/xlink">
    <!-- Generator: sketchtool 46.2 (44496) - http://www.bohemiancoding.com/sketch -->
    <title>select-all-small</title>
    <desc>Created with sketchtool.</desc>
    <defs></defs>
    <g id="icons-published" stroke="none" stroke-width="1" fill="none" fill-rule="evenodd">
        <g id="briefing" transform="translate(-2948.000000, -1562.000000)"></g>
        <g id="select-all-small" stroke="#000000">
            <polygon id="Path" points="6.5 6.5 17.5 6.5 17.5 17.5 6.5 17.5"></polygon>
            <path d="M7,2.5 L9,2.5 M11,2.5 L13,2.5 M15,2.5 L17,2.5 M5,2.5 L2.8,2.5 C2.8,2.5 2.5,2.5 2.5,2.8 L2.5,5 M19,2.5 L21.2,2.5 C21.2,2.5 21.5,2.5 21.5,2.8 L21.5,5 M7,21.5 L9,21.5 M11,21.5 L13,21.5 M15,21.5 L17,21.5 M5,21.5 L2.8,21.5 C2.8,21.5 2.5,21.5 2.5,21.2 L2.5,19 M19,21.5 L21.2,21.5 C21.2,21.5 21.5,21.5 21.5,21.2 L21.5,19 M2.5,17 L2.5,15 M2.5,13 L2.5,11 M2.5,9 L2.5,7 M21.5,17 L21.5,15 M21.5,13 L21.5,11 M21.5,9 L21.5,7" id="Shape"></path>
        </g>
    </g>
</svg>
